apps/site/public/icons/technologies/deno-deploy.svg

<svg width="48" height="48" viewBox="0 0 48 48" fill="none" xmlns="http://www.w3.org/2000/svg">
<path fill-rule="evenodd" clip-rule="evenodd" d="M22.2423 47.3301C13.9863 46.2891 7.52029 39.7801 5.53229 34.5851C3.12129 28.2831 4.01129 20.9571 4.96829 18.4801C5.02829 18.3641 5.13829 18.2821 5.26729 18.2591C5.39429 18.2351 5.52629 18.2711 5.62429 18.3571C6.06929 18.7241 6.57929 19.0491 7.11829 19.3371C8.40729 10.2801 13.5633 3.7431 19.7043 1.4211C27.5363 -1.5379 34.6383 2.4291 35.4473 8.5121C38.5883 11.2591 42.2733 15.8501 43.4783 22.4751C44.6933 29.1521 43.5863 37.1531 37.7783 42.3811C41.3143 42.7311 43.9933 43.3811 44.0153 44.4381C44.0603 46.4901 33.7553 47.5801 26.1323 47.5801C24.6663 47.5801 23.3653 47.4891 22.2423 47.3301Z" fill="#002633"/>
<path fill-rule="evenodd" clip-rule="evenodd" d="M19.0015 15.1569C18.9705 15.1579 18.9405 15.1669 18.9145 15.1829C16.3515 16.7609 15.6075 23.3729 15.5635 25.9969C15.5635 26.0899 15.5255 26.1779 15.4585 26.2419C15.3915 26.3059 15.3015 26.3389 15.2095 26.3339C12.9195 26.1469 8.82748 24.8419 7.46148 23.7029C7.42448 23.6659 7.36748 23.6529 7.31748 23.6709C7.26748 23.6889 7.23248 23.7339 7.22648 23.7869C7.01048 26.2329 7.31448 30.6599 9.19348 33.9539C11.1445 37.3769 17.3855 43.6309 27.2825 41.9369C37.1795 40.2419 40.5285 31.2279 40.1905 25.2649C39.8655 19.5459 37.5255 15.4519 35.5015 13.4209C35.4525 13.3729 35.3795 13.3579 35.3155 13.3809C35.2505 13.4039 35.2045 13.4619 35.1965 13.5299C34.7545 16.0729 31.9765 20.8839 30.0265 21.5309C29.8945 21.5599 29.7565 21.5059 29.6805 21.3939C27.8165 18.7819 22.8445 14.9809 19.0015 15.1569Z" fill="#FEFDF0"/>
<path d="M22.6762 9.69087C23.5366 9.69087 24.2342 8.81692 24.2342 7.73886C24.2342 6.66081 23.5366 5.78687 22.6762 5.78687C21.8157 5.78687 21.1182 6.66081 21.1182 7.73886C21.1182 8.81692 21.8157 9.69087 22.6762 9.69087Z" fill="white"/>
<path d="M29.8676 9.69087C30.7286 9.69087 31.4266 8.81692 31.4266 7.73886C31.4266 6.66081 30.7286 5.78687 29.8676 5.78687C29.0066 5.78687 28.3086 6.66081 28.3086 7.73886C28.3086 8.81692 29.0066 9.69087 29.8676 9.69087Z" fill="white"/>
</svg>

<svg xmlns="http://www.w3.org/2000/svg" width="48" height="48" fill="none" viewBox="0 0 48 48"><path fill="#002633" fill-rule="evenodd" d="M22.242 47.33c-8.256-1.04-14.722-7.55-16.71-12.745-2.41-6.302-1.52-13.628-.564-16.105a.423.423 0 0 1 .656-.123c.445.367.955.692 1.494.98 1.29-9.057 6.445-15.594 12.586-17.916 7.832-2.959 14.934 1.008 15.743 7.091 3.141 2.747 6.826 7.338 8.031 13.963 1.215 6.677.108 14.678-5.7 19.906 3.536.35 6.215 1 6.237 2.057.045 2.052-10.26 3.142-17.883 3.142a28 28 0 0 1-3.89-.25" clip-rule="evenodd"/><path fill="#fefdf0" fill-rule="evenodd" d="M19.002 15.157a.2.2 0 0 0-.087.026c-2.563 1.578-3.307 8.19-3.351 10.814a.34.34 0 0 1-.354.337c-2.29-.187-6.383-1.492-7.749-2.631a.139.139 0 0 0-.235.084c-.216 2.446.088 6.873 1.967 10.167 1.952 3.423 8.193 9.677 18.09 7.983 9.896-1.695 13.246-10.71 12.907-16.672-.325-5.72-2.664-9.813-4.688-11.844a.18.18 0 0 0-.305.109c-.442 2.543-3.22 7.354-5.17 8a.33.33 0 0 1-.347-.136c-1.863-2.612-6.835-6.413-10.678-6.237" clip-rule="evenodd"/><path fill="#fff" d="M22.676 9.69c.86 0 1.558-.873 1.558-1.951s-.697-1.952-1.558-1.952c-.86 0-1.558.874-1.558 1.952s.698 1.952 1.558 1.952m7.192-.001c.86 0 1.559-.873 1.559-1.951s-.698-1.952-1.56-1.952c-.86 0-1.558.874-1.558 1.952s.698 1.952 1.559 1.952"/></svg>
